assets/images/icons/src/arrow-circle-left.svg

<?xml version="1.0" encoding="utf-8"?>
<!-- Generated by IcoMoon.io -->
<!DOCTYPE svg PUBLIC "-//W3C//DTD SVG 1.1//EN" "http://www.w3.org/Graphics/SVG/1.1/DTD/svg11.dtd">
<svg version="1.1" xmlns="http://www.w3.org/2000/svg" xmlns:xlink="http://www.w3.org/1999/xlink" width="12" height="14" viewBox="0 0 12 14">
<path fill="#444444" d="M10 7.5v-1q0-0.203-0.148-0.352t-0.352-0.148h-3.922l1.477-1.477q0.148-0.148 0.148-0.352t-0.148-0.352l-0.711-0.711q-0.141-0.141-0.352-0.141t-0.352 0.141l-3.539 3.539q-0.141 0.141-0.141 0.352t0.141 0.352l3.539 3.539q0.141 0.141 0.352 0.141t0.352-0.141l0.711-0.711q0.141-0.141 0.141-0.352t-0.141-0.352l-1.477-1.477h3.922q0.203 0 0.352-0.148t0.148-0.352zM12 7q0 1.633-0.805 3.012t-2.184 2.184-3.012 0.805-3.012-0.805-2.184-2.184-0.805-3.012 0.805-3.012 2.184-2.184 3.012-0.805 3.012 0.805 2.184 2.184 0.805 3.012z"></path>
</svg>

<svg xmlns="http://www.w3.org/2000/svg" width="12" height="14" viewBox="0 0 12 14"><path fill="#444" d="M10 7.5v-1q0-.203-.148-.352T9.5 6H5.578l1.477-1.477q.148-.148.148-.352t-.148-.352l-.711-.711q-.141-.141-.352-.141t-.352.141L2.101 6.647q-.141.141-.141.352t.141.352L5.64 10.89q.141.141.352.141t.352-.141l.711-.711q.141-.141.141-.352t-.141-.352L5.578 7.998H9.5q.203 0 .352-.148T10 7.498zm2-.5q0 1.633-.805 3.012t-2.184 2.184-3.012.805-3.012-.805-2.184-2.184T-.002 7t.805-3.012 2.184-2.184T5.999.999t3.012.805 2.184 2.184T12 7z"/></svg>
